!!!COM: Music21
!!!OTL: reel_Sligo--The
!!!OMV: reel_Sligo--The
**kern
*clefG2
*k[f#c#]
*D:
*M4/4
=1
8dL
8f#J
8aL
8ddJ
4.ff#
8ee
=
8ddL
8cc#J
8ddL
8eeJ
8ff#L
8ddJ
8aL
8f#J
=
4g
8f#L
8gJ
8eL
8dJ
8eL
8f#J
=
8gL
8aJ
8bL
8gJ
8eL
8f#J
8gL
8eJ
=
8f#L
8aJ
8dL
8aJ
8f#L
8aJ
8ddL
8cc#J
!!linebreak:original
=
8bL
8gJ
4g
8bL
8cc#J
8ddL
8eeJ
=
4ff#
8aaL
8ff#J
8ggL
8eeJ
8cc#L
8ddJ
=
8eeL
8ddJ
8ddL
8cc#J
2dd
=||
*M4/4
8dL
8f#J
8aL
8ddJ
4.ff#
8ee
=
8ddL
8cc#J
8ddL
8eeJ
8ff#L
8ddJ
8aL
8f#J
!!linebreak:original
=
4g
8f#L
8gJ
8eL
8dJ
8eL
8f#J
=
8gL
8aJ
8bL
8gJ
8eL
8f#J
8gL
8eJ
=
8f#L
8aJ
8dL
8aJ
8f#L
8aJ
8ddL
8cc#J
=
8bL
8gJ
4g
8bL
8cc#J
8ddL
8eeJ
=
4ff#
8aaL
8ff#J
8ggL
8eeJ
8cc#L
8ddJ
!!linebreak:original
=
8eeL
8ddJ
8ddL
8cc#J
2dd
=||
8cn
4ff#
8ff#
8eeL
8ddJ
8ff#L
8aaJ
=
*M1/8
8ff#
=
*M4/4
8ggL
8ff#J
8eeL
8ddJ
8cc#L
8ddJ
8eeL
8ggJ
=
8ff#L
8aaJ
4aa
8ggL
8ff#J
8eeL
8ddJ
=
8cc#L
8aJ
8bL
8gJ
4a
8aL
8gJ
!!linebreak:original
=
8f#L
8aJ
8dL
8aJ
8f#L
8aJ
8ddL
8cc#J
=
8bL
8gJ
4g
8bL
8cc#J
8ddL
8eeJ
=
4ff#
8aaL
8ff#J
8ggL
8eeJ
8cc#L
8ddJ
=
8eeL
8ddJ
8ddL
8cc#J
2dd
=||
*M4/4
8dL
8f#J
8aL
8ddJ
4.ff#
8ee
!!linebreak:original
=
8ddL
8cc#J
8ddL
8eeJ
8ff#L
8ddJ
8aL
8f#J
=
4g
8f#L
8gJ
8eL
8dJ
8eL
8f#J
=
8gL
8aJ
8bL
8gJ
8eL
8f#J
8gL
8eJ
=
8f#L
8aJ
8dL
8aJ
8f#L
8aJ
8ddL
8cc#J
=
8bL
8gJ
4g
8bL
8cc#J
8ddL
8eeJ
!!linebreak:original
=
4ff#
8aaL
8ff#J
8ggL
8eeJ
8cc#L
8ddJ
=
8eeL
8ddJ
8ddL
8cc#J
2dd
=||
*M4/4
8dL
8f#J
8aL
8ddJ
4.ff#
8ee
=
8ddL
8cc#J
8ddL
8eeJ
8ff#L
8ddJ
8aL
8f#J
=
4g
8f#L
8gJ
8eL
8dJ
8eL
8f#J
!!linebreak:original
=
8gL
8aJ
8bL
8gJ
8eL
8f#J
8gL
8eJ
=
8f#L
8aJ
8dL
8aJ
8f#L
8aJ
8ddL
8cc#J
=
8bL
8gJ
4g
8bL
8cc#J
8ddL
8eeJ
=
4ff#
8aaL
8ff#J
8ggL
8eeJ
8cc#L
8ddJ
=
8eeL
8ddJ
8ddL
8cc#J
2dd
!!linebreak:original
=||
8cn
4ff#
8ff#
8eeL
8ddJ
8ff#L
8aaJ
=
*M1/8
8ff#
=
*M4/4
8ggL
8ff#J
8eeL
8ddJ
8cc#L
8ddJ
8eeL
8ggJ
=
8ff#L
8aaJ
4aa
8ggL
8ff#J
8eeL
8ddJ
=
8cc#L
8aJ
8bL
8gJ
4a
8aL
8gJ
!!linebreak:original
=
8f#L
8aJ
8dL
8aJ
8f#L
8aJ
8ddL
8cc#J
=
8bL
8gJ
4g
8bL
8cc#J
8ddL
8eeJ
=
4ff#
8aaL
8ff#J
8ggL
8eeJ
8cc#L
8ddJ
=
8eeL
8ddJ
8ddL
8cc#J
2dd
=||
*-
